components/icon/svg/24/seat_aisle.svg

<?xml version="1.0" encoding="UTF-8"?>
<svg width="24px" height="24px" viewBox="0 0 24 24" version="1.1" xmlns="http://www.w3.org/2000/svg" xmlns:xlink="http://www.w3.org/1999/xlink">
    <!-- Generator: Sketch 64 (93537) - https://sketch.com -->
    <title>ic-db_seat_aisle_24</title>
    <desc>Created with Sketch.</desc>
    <g id="Symbols" stroke="none" stroke-width="1" fill="none" fill-rule="evenodd">
        <g id="24dp-Icon/Seat/Aisle" fill="#282D37">
            <path d="M10.033,9 C11.1873,9 12.1292,9.934 12.364,11.1786 L12.8806,14.0036 L16.5347,14.0083 C16.9823,14.0083 17.3828,14.3146 17.5006,14.7622 L19.0082,20.7492 C19.1496,21.3617 18.6784,21.9978 18.0424,21.9978 C17.5713,21.9978 17.1472,21.668 17.053,21.2439 L15.7574,16.0007 L12.0353,16.0007 C11.5406,16.0007 11.1402,15.6473 11.0489,15.1678 L10.3914,11.5074 C10.3444,11.2725 10.1565,11 9.8278,11 L9.4051,11 C8.865,11 8.4075,10.5653 8.4075,10 C8.4075,9.4582 8.8551,9 9.3969,9 L10.033,9 Z M2,4.013 C2,3.4476 2.4476,3 2.9894,3 C4.8033,3 6.0012,4.2721 6.0012,6.2509 L6.0012,8.9128 L7.6302,17.04 C7.7496,17.6286 8.2662,18 8.8551,18 L13.0118,18 C13.5536,18 14.0012,18.5006 14.0012,19.0424 C14.0012,19.6078 13.5536,20 13.0118,20 L8.8551,20 C7.3004,20 5.9818,18.9481 5.6749,17.4405 L4.0695,9.4547 C4.0216,9.2192 3.9988,9.0071 3.9988,8.7951 L3.9988,6.2509 C3.9988,5.3793 3.649,5.0024 2.9894,5.0024 C2.4476,5.0024 2,4.5548 2,4.013 Z M10.0023,3 C11.1095,3 12.0047,3.8952 12.0047,5.0024 C12.0047,6.1096 11.1095,7.0048 10.0023,7.0048 C8.8951,7.0048 8,6.1096 8,5.0024 C8,3.8952 8.8951,3 10.0023,3 Z" id="🎨-Color"></path>
        </g>
    </g>
</svg>

<svg width="24" height="24" xmlns="http://www.w3.org/2000/svg"><path d="M10.033 9c1.154 0 2.096.934 2.331 2.179l.517 2.825 3.654.004c.447 0 .848.307.966.754l1.507 5.987c.142.613-.33 1.249-.966 1.249-.47 0-.895-.33-.989-.754L15.757 16h-3.722c-.494 0-.895-.354-.986-.833l-.658-3.66c-.047-.235-.235-.508-.563-.508h-.423a.997.997 0 01-.997-1c0-.542.447-1 .989-1h.636zM2 4.013A1 1 0 012.99 3C4.802 3 6 4.272 6 6.25v2.663l1.63 8.127c.119.589.635.96 1.224.96h4.157c.542 0 .99.5.99 1.042 0 .566-.448.958-.99.958H8.855c-1.555 0-2.873-1.052-3.18-2.56L4.069 9.456a3.256 3.256 0 01-.07-.66V6.251c0-.872-.35-1.249-1.01-1.249A.995.995 0 012 4.013zM10.002 3a2 2 0 012.003 2.002 2 2 0 01-2.003 2.003A2 2 0 018 5.002 2 2 0 0110.002 3z" fill="#282D37" fill-rule="evenodd"/></svg>
